icons/plexis/48/logoqle2.svg

<svg viewBox="0 0 48 48" xmlns="http://www.w3.org/2000/svg" xmlns:xlink="http://www.w3.org/1999/xlink">
  <linearGradient id="a" gradientTransform="matrix(0 -1 1 0 -.0000015 47.999998)" gradientUnits="userSpaceOnUse" x1="1" x2="47">
    <stop offset="0" stop-color="#e96633"/>
    <stop offset="1" stop-color="#eb7545"/>
  </linearGradient>
  <path d="m47 24c0 22.703-.297 23-23 23-22.703 0-23-.297-23-23 0-22.703.297-23 23-23 22.703 0 23 .297 23 23z" fill="url(#a)"/>
  <path d="m25 10a15 15 0 0 0-15 15 15 15 0 0 0  15 15 15 15 0 0 0  15-15 15 15 0 0 0-15-15m0 6a9 9 0 0 1 9 9 9 9 0 0 1-9 9 9 9 0 0 1-9-9 9 9 0 0 1  9-9z" opacity=".1"/>
  <path d="m24 9a15 15 0 0 0-15 15 15 15 0 0 0  15 15 15 15 0 0 0  15-15 15 15 0 0 0-15-15m0 6a9 9 0 0 1 9 9 9 9 0 0 1-9 9 9 9 0 0 1-9-9 9 9 0 0 1  9-9z" fill="#f9f9f9"/>
  <circle cx="28.5" cy="28.5" fill="#f9f9f9" r="5.5"/>
</svg>

<svg xmlns="http://www.w3.org/2000/svg" viewBox="0 0 48 48">
 <defs>
  <linearGradient id="linearGradient3764" x1="1" x2="47" gradientUnits="userSpaceOnUse" gradientTransform="matrix(0,-1,1,0,-1.5e-6,47.999998)">
   <stop style="stop-color:#e96633;stop-opacity:1"/>
   <stop offset="1" style="stop-color:#eb7545;stop-opacity:1"/>
  </linearGradient>
 </defs>
 <g>
  
  
  
 </g>
 <g>
  <path d="m 47,24 C 47,46.703 46.703,47 24,47 1.297,47 1,46.703 1,24 1,1.297 1.297,1 24,1 46.703,1 47,1.297 47,24 z" style="fill:url(#linearGradient3764);fill-opacity:1"/>
 </g>
 <g>
  <g>
   <g transform="translate(1,1)">
    <g style="opacity:0.1">
     <!-- color: #eb7545 -->
    </g>
   </g>
  </g>
 </g>
 <g>
  <g>
   <!-- color: #eb7545 -->
  </g>
 </g>
 <g>
  
 </g>
 <path d="M 25 10 A 15 15 0 0 0 10 25 15 15 0 0 0 25 40 15 15 0 0 0 40 25 15 15 0 0 0 25 10 m 0 6 a 9 9 0 0 1 9 9 9 9 0 0 1 -9 9 9 9 0 0 1 -9 -9 9 9 0 0 1 9 -9 z" style="fill:#000;opacity:0.1;fill-opacity:1;stroke:none"/>
 <path d="M 24 9 A 15 15 0 0 0 9 24 15 15 0 0 0 24 39 15 15 0 0 0 39 24 15 15 0 0 0 24 9 m 0 6 a 9 9 0 0 1 9 9 9 9 0 0 1 -9 9 9 9 0 0 1 -9 -9 9 9 0 0 1 9 -9 z" style="fill:#f9f9f9;opacity:1;fill-opacity:1;stroke:none"/>
 <circle cx="28.5" cy="28.5" r="5.5" style="fill:#f9f9f9;opacity:1;fill-opacity:1;stroke:none"/>
</svg>
